img/svg/icon-font/shop-list.svg

<svg width="22" height="22" viewBox="0 0 22 22" fill="none" xmlns="http://www.w3.org/2000/svg">
<g clip-path="url(#clip0)">
<path d="M13.9625 6.27478C13.9625 6.74928 13.5778 7.13399 13.1033 7.13399H10.1389C9.66428 7.13399 9.27957 6.74928 9.27957 6.27478C9.27957 5.80028 9.66428 5.41557 10.1389 5.41557H13.1033C13.5778 5.41557 13.9625 5.80028 13.9625 6.27478ZM7.97003 3.98032C7.58197 3.70706 7.04604 3.80005 6.77278 4.18811L5.54633 5.92952L4.90666 5.28348C4.57281 4.94644 4.02882 4.94359 3.69162 5.27744C3.35442 5.61128 3.35173 6.15544 3.68558 6.49265L4.65657 7.47321C4.66093 7.47757 4.66513 7.48193 4.66966 7.48613C4.91908 7.72749 5.2531 7.86177 5.59718 7.86177C5.62639 7.86177 5.65576 7.86093 5.68497 7.85892C6.0601 7.83408 6.40939 7.64995 6.64354 7.35403C6.65327 7.34145 6.66284 7.32886 6.67191 7.31577L8.17783 5.17757C8.45108 4.78951 8.35793 4.25357 7.97003 3.98032ZM13.1033 10.6163H10.1389C9.66428 10.6163 9.27957 11.0008 9.27957 11.4755C9.27957 11.95 9.66428 12.3347 10.1389 12.3347H13.1033C13.5778 12.3347 13.9625 11.95 13.9625 11.4755C13.9625 11.0008 13.5778 10.6163 13.1033 10.6163ZM7.97003 9.18105C7.58197 8.90779 7.04604 9.00078 6.77278 9.38884L5.54633 11.1302L4.90666 10.4842C4.57281 10.147 4.02882 10.1443 3.69162 10.4782C3.35442 10.812 3.35173 11.3562 3.68558 11.6934L4.65657 12.6739C4.66093 12.6783 4.66513 12.6827 4.66966 12.6869C4.91908 12.9282 5.2531 13.0625 5.59718 13.0625C5.62639 13.0625 5.65576 13.0617 5.68497 13.0596C6.0601 13.0348 6.40939 12.8507 6.64354 12.5548C6.65327 12.5422 6.66284 12.5296 6.67191 12.5165L8.17783 10.3783C8.45108 9.99023 8.35793 9.45413 7.97003 9.18105ZM22 3.17918V5.92868C22 7.82384 20.4582 9.36551 18.5632 9.36551H17.4423V14.2631C17.4423 14.7378 17.0576 15.1225 16.5831 15.1225C16.1086 15.1225 15.7239 14.7378 15.7239 14.2631V3.17918C15.7239 2.6691 15.8471 2.18755 16.0639 1.76138H3.43683C2.48933 1.76138 1.71841 2.5323 1.71841 3.4798V18.6023C1.71841 19.5498 2.48933 20.3207 3.43683 20.3207H14.0055C14.953 20.3207 15.7239 19.5498 15.7239 18.6023C15.7239 18.1278 16.1086 17.7431 16.5831 17.7431C17.0576 17.7431 17.4423 18.1278 17.4423 18.6023C17.4423 20.4974 15.9005 22.0391 14.0055 22.0391H3.43683C1.54184 22.0391 0 20.4974 0 18.6023V3.4798C0 1.58481 1.54184 0.0429688 3.43683 0.0429688H18.9031C18.9163 0.0429688 18.9294 0.0443115 18.9425 0.0449829C20.6356 0.0869446 22 1.47621 22 3.17918ZM20.2816 3.17918C20.2816 2.39735 19.6456 1.76138 18.8638 1.76138H18.8601C18.0783 1.76138 17.4423 2.39735 17.4423 3.17918V7.64709H18.5632C19.5107 7.64709 20.2816 6.87617 20.2816 5.92868V3.17918ZM13.1033 15.7715H10.1389C9.66428 15.7715 9.27957 16.1562 9.27957 16.6308C9.27957 17.1054 9.66428 17.4901 10.1389 17.4901H13.1033C13.5778 17.4901 13.9625 17.1054 13.9625 16.6308C13.9625 16.1562 13.5778 15.7715 13.1033 15.7715ZM7.97003 14.3365C7.58197 14.0632 7.04604 14.1562 6.77278 14.5441L5.54633 16.2857L4.90666 15.6396C4.57281 15.3024 4.02882 15.2997 3.69162 15.6336C3.35442 15.9674 3.35173 16.5116 3.68558 16.8488L4.65657 17.8293C4.66093 17.8337 4.66513 17.8379 4.66966 17.8423C4.91908 18.0836 5.2531 18.2179 5.59718 18.2179C5.62639 18.2179 5.65576 18.2171 5.68497 18.2151C6.0601 18.19 6.40939 18.0061 6.64354 17.71C6.65327 17.6976 6.66284 17.6848 6.67191 17.6719L8.17783 15.5335C8.45108 15.1456 8.35793 14.6095 7.97003 14.3365Z" fill="#4C51CB"/>
</g>
<defs>
<clipPath id="clip0">
<rect width="22" height="22" fill="white"/>
</clipPath>
</defs>
</svg>

<svg width="22" height="22" fill="none" xmlns="http://www.w3.org/2000/svg"><g clip-path="url(#clip0)"><path d="M13.963 6.275a.86.86 0 01-.86.859H10.14a.86.86 0 110-1.718h2.964a.86.86 0 01.86.859zM7.97 3.98a.86.86 0 00-1.197.208L5.546 5.93l-.64-.647a.86.86 0 00-1.22 1.21l.97.98.014.013a1.336 1.336 0 001.015.373 1.338 1.338 0 00.987-.543l1.506-2.138A.86.86 0 007.97 3.98zm5.133 6.636H10.14a.86.86 0 100 1.719h2.964a.86.86 0 000-1.719zM7.97 9.181a.86.86 0 00-1.197.208L5.546 11.13l-.64-.646a.86.86 0 10-1.22 1.21l.97.98.014.013a1.336 1.336 0 001.015.373 1.338 1.338 0 00.987-.543l1.506-2.139a.86.86 0 00-.208-1.197zM22 3.18v2.75a3.44 3.44 0 01-3.437 3.437h-1.12v4.897a.86.86 0 11-1.72 0V3.18c0-.51.124-.991.34-1.418H3.438a1.72 1.72 0 00-1.72 1.718v15.122a1.72 1.72 0 001.719 1.719h10.569a1.72 1.72 0 001.718-1.719.86.86 0 011.718 0 3.44 3.44 0 01-3.437 3.437H3.438A3.44 3.44 0 010 18.602V3.48A3.44 3.44 0 013.437.043h15.466l.04.002A3.14 3.14 0 0122 3.179zm-1.718 0a1.42 1.42 0 00-1.418-1.418h-.004a1.42 1.42 0 00-1.418 1.418v4.468h1.121a1.72 1.72 0 001.719-1.718V3.18zm-7.179 12.592H10.14a.86.86 0 100 1.72h2.964a.86.86 0 000-1.72zM7.97 14.336a.86.86 0 00-1.197.208l-1.227 1.742-.64-.646a.86.86 0 10-1.22 1.209l.97.98a1.336 1.336 0 001.028.386 1.338 1.338 0 00.988-.543l1.506-2.139a.859.859 0 00-.208-1.197z" fill="#4C51CB"/></g><defs><clipPath id="clip0"><path fill="#fff" d="M0 0h22v22H0z"/></clipPath></defs></svg>
